src/icons/solid/plus-sm.svg

<svg width="20" height="20" viewBox="0 0 20 20" fill="none" xmlns="http://www.w3.org/2000/svg">
<path fill-rule="evenodd" clip-rule="evenodd" d="M10 5C10.5523 5 11 5.44772 11 6V9L14 9C14.5523 9 15 9.44772 15 10C15 10.5523 14.5523 11 14 11H11V14C11 14.5523 10.5523 15 10 15C9.44771 15 9 14.5523 9 14V11H6C5.44772 11 5 10.5523 5 10C5 9.44771 5.44772 9 6 9L9 9V6C9 5.44772 9.44771 5 10 5Z" fill="#374151"/>
</svg>

<svg xmlns="http://www.w3.org/2000/svg" viewBox="0 0 20 20" fill="currentColor">
  <path fill-rule="evenodd" d="M10 5a1 1 0 011 1v3h3a1 1 0 110 2h-3v3a1 1 0 11-2 0v-3H6a1 1 0 110-2h3V6a1 1 0 011-1z" clip-rule="evenodd"/>
</svg>
